customWidgets/icons/settings.svg

<svg width="28" height="28" viewBox="0 0 28 28" fill="none" xmlns="http://www.w3.org/2000/svg">
<path d="M10.8745 4.49814L11.1087 5.21062L10.8745 4.49814ZM11.216 4.1362L10.4883 3.95429L11.216 4.1362ZM8.99443 5.05697L8.60856 5.70009L8.99443 5.05697ZM9.49197 5.07135L9.83053 5.74058L9.49197 5.07135ZM5.94578 3.66945L5.41545 3.13912L5.94578 3.66945ZM6.55658 3.59426L6.94245 2.95114V2.95114L6.55658 3.59426ZM3.59425 6.55659L2.95113 6.94246L3.59425 6.55659ZM3.66945 5.94579L4.19978 6.47612L3.66945 5.94579ZM5.07134 9.49198L4.40211 9.15342L5.07134 9.49198ZM5.05696 8.99444L5.70008 8.60857L5.05696 8.99444ZM4.1362 11.216L3.95429 10.4883H3.95429L4.1362 11.216ZM4.49813 10.8745L5.21062 11.1087L4.49813 10.8745ZM1.37873 11.9053L1.56063 12.6329H1.56063L1.37873 11.9053ZM1.37873 16.0947L1.56063 15.3671L1.37873 16.0947ZM4.49814 17.1255L3.78565 17.3597L4.49814 17.1255ZM4.1362 16.784L3.95429 17.5117H3.95429L4.1362 16.784ZM5.05697 19.0056L5.70009 19.3914L5.05697 19.0056ZM5.07135 18.508L5.74058 18.1695L5.07135 18.508ZM3.66945 22.0542L3.13912 22.5846L3.66945 22.0542ZM3.59426 21.4434L2.95114 21.0575L3.59426 21.4434ZM6.55659 24.4057L6.17072 23.7626L6.55659 24.4057ZM5.94579 24.3306L6.47612 23.8002L5.94579 24.3306ZM9.49199 22.9287L9.83055 22.2594L9.49199 22.9287ZM8.99444 22.943L9.38031 23.5862L8.99444 22.943ZM10.9079 23.7237L10.1964 23.9609L10.9079 23.7237ZM10.593 23.4046L10.3375 24.1098L10.593 23.4046ZM11.886 26.6581L12.5975 26.4209L11.886 26.6581ZM16.114 26.6581L15.4024 26.4209L16.114 26.6581ZM17.407 23.4046L17.6625 24.1098L17.407 23.4046ZM17.0921 23.7237L17.8036 23.9609L17.0921 23.7237ZM18.6888 23.0619L19.0243 22.3911L18.6888 23.0619ZM18.2403 23.0591L17.9219 22.38L18.2403 23.0591ZM21.4558 24.4454L21.1204 25.1163L21.4558 24.4454ZM24.4454 21.4559L23.7746 21.7913L24.4454 21.4559ZM23.0591 18.2403L23.7382 18.5587L23.0591 18.2403ZM23.0619 18.6889L23.7328 18.3534L23.0619 18.6889ZM23.7237 17.0921L23.9609 17.8036L23.7237 17.0921ZM23.4046 17.407L22.6995 17.1515L23.4046 17.407ZM26.6581 16.114L26.4209 15.4025L26.6581 16.114ZM26.6581 11.886L26.8953 11.1745L26.6581 11.886ZM23.4046 10.593L24.1098 10.3375L23.4046 10.593ZM23.7237 10.9079L23.4865 11.6194L23.7237 10.9079ZM23.0619 9.31116L23.7328 9.64657L23.0619 9.31116ZM23.0591 9.7597L23.7382 9.4413L23.0591 9.7597ZM24.3518 5.967L23.8215 6.49733V6.49733L24.3518 5.967ZM24.4454 6.54416L23.7746 6.20875L24.4454 6.54416ZM21.4559 3.55456L21.1204 2.88374L21.4559 3.55456ZM22.033 3.64823L22.5633 3.1179L22.033 3.64823ZM18.2403 4.9409L18.5587 4.26184L18.2403 4.9409ZM18.6889 4.93806L19.0243 5.60888L18.6889 4.93806ZM16.784 4.13619L17.5117 3.95429V3.95429L16.784 4.13619ZM17.1255 4.49813L16.8913 5.21062L17.1255 4.49813ZM11.9053 1.37873L12.6329 1.56063L11.9053 1.37873ZM16.0947 1.37873L15.3671 1.56063V1.56063L16.0947 1.37873ZM15.6096 0.25H12.3904V1.75H15.6096V0.25ZM17.5117 3.95429L16.8223 1.19683L15.3671 1.56063L16.0564 4.3181L17.5117 3.95429ZM16.8913 5.21062C17.2447 5.3268 17.5887 5.46372 17.9219 5.61996L18.5587 4.26184C18.1712 4.08012 17.7709 3.92083 17.3597 3.78565L16.8913 5.21062ZM21.1204 2.88374L18.3534 4.26724L19.0243 5.60888L21.7913 4.22539L21.1204 2.88374ZM24.8821 5.43667L22.5633 3.1179L21.5027 4.17856L23.8215 6.49733L24.8821 5.43667ZM23.7328 9.64657L25.1163 6.87957L23.7746 6.20875L22.3911 8.97574L23.7328 9.64657ZM22.38 10.0781C22.4977 10.329 22.6044 10.586 22.6995 10.8485L24.1098 10.3375C23.9991 10.0321 23.875 9.7331 23.7382 9.4413L22.38 10.0781ZM26.8953 11.1745L23.9609 10.1964L23.4865 11.6194L26.4209 12.5976L26.8953 11.1745ZM27.75 15.6396V12.3604H26.25V15.6396H27.75ZM23.9609 17.8036L26.8953 16.8255L26.4209 15.4025L23.4865 16.3806L23.9609 17.8036ZM22.6995 17.1515C22.6044 17.414 22.4977 17.671 22.38 17.9219L23.7382 18.5587C23.875 18.2669 23.9991 17.9679 24.1098 17.6625L22.6995 17.1515ZM25.1163 21.1204L23.7328 18.3534L22.3911 19.0243L23.7746 21.7913L25.1163 21.1204ZM22.5633 24.8821L24.8821 22.5633L23.8214 21.5027L21.5027 23.8215L22.5633 24.8821ZM18.3534 23.7328L21.1204 25.1163L21.7913 23.7746L19.0243 22.3911L18.3534 23.7328ZM17.9219 22.38C17.671 22.4977 17.414 22.6044 17.1515 22.6995L17.6625 24.1098C17.9679 23.9991 18.2669 23.875 18.5587 23.7382L17.9219 22.38ZM16.8255 26.8953L17.8036 23.9609L16.3806 23.4865L15.4024 26.4209L16.8255 26.8953ZM12.3604 27.75H15.6396V26.25H12.3604V27.75ZM10.1964 23.9609L11.1745 26.8953L12.5975 26.4209L11.6194 23.4865L10.1964 23.9609ZM10.8485 22.6995C10.499 22.5728 10.1591 22.4257 9.83055 22.2594L9.15343 23.5979C9.53553 23.7912 9.93079 23.9624 10.3375 24.1098L10.8485 22.6995ZM6.94246 25.0489L9.38031 23.5862L8.60857 22.2999L6.17072 23.7626L6.94246 25.0489ZM3.13912 22.5846L5.41546 24.8609L6.47612 23.8002L4.19978 21.5239L3.13912 22.5846ZM4.41385 18.6197L2.95114 21.0575L4.23738 21.8293L5.70009 19.3914L4.41385 18.6197ZM5.74058 18.1695C5.53338 17.7599 5.3558 17.3329 5.21062 16.8913L3.78565 17.3597C3.95458 17.8736 4.16117 18.3703 4.40211 18.8466L5.74058 18.1695ZM1.19683 16.8223L3.95429 17.5117L4.3181 16.0564L1.56063 15.3671L1.19683 16.8223ZM0.25 12.3904L0.25 15.6096H1.75L1.75 12.3904H0.25ZM3.95429 10.4883L1.19683 11.1777L1.56063 12.6329L4.3181 11.9436L3.95429 10.4883ZM5.21062 11.1087C5.3558 10.6671 5.53338 10.2401 5.74058 9.83054L4.40211 9.15342C4.16117 9.62969 3.95458 10.1264 3.78565 10.6403L5.21062 11.1087ZM2.95113 6.94246L4.41384 9.38031L5.70008 8.60857L4.23737 6.17072L2.95113 6.94246ZM5.41545 3.13912L3.13911 5.41546L4.19978 6.47612L6.47611 4.19978L5.41545 3.13912ZM9.3803 4.41385L6.94245 2.95114L6.17071 4.23738L8.60856 5.70009L9.3803 4.41385ZM9.83053 5.74058C10.2401 5.53338 10.6671 5.3558 11.1087 5.21062L10.6403 3.78565C10.1264 3.95458 9.62968 4.16117 9.15341 4.40211L9.83053 5.74058ZM11.1777 1.19683L10.4883 3.95429L11.9436 4.3181L12.6329 1.56063L11.1777 1.19683ZM11.1087 5.21062C11.5099 5.07874 11.8354 4.75091 11.9436 4.3181L10.4883 3.95429C10.5108 3.86453 10.575 3.8071 10.6403 3.78565L11.1087 5.21062ZM8.60856 5.70009C8.99126 5.92971 9.45344 5.93135 9.83053 5.74058L9.15341 4.40211C9.21484 4.37104 9.30096 4.36624 9.3803 4.41385L8.60856 5.70009ZM6.47611 4.19978C6.39499 4.2809 6.26908 4.2964 6.17071 4.23738L6.94245 2.95114C6.45061 2.65604 5.82104 2.73354 5.41545 3.13912L6.47611 4.19978ZM4.23737 6.17072C4.29639 6.26909 4.28089 6.395 4.19978 6.47612L3.13911 5.41546C2.73353 5.82104 2.65603 6.45062 2.95113 6.94246L4.23737 6.17072ZM5.74058 9.83054C5.93135 9.45345 5.9297 8.99127 5.70008 8.60857L4.41384 9.38031C4.36624 9.30097 4.37103 9.21485 4.40211 9.15342L5.74058 9.83054ZM4.3181 11.9436C4.75091 11.8354 5.07874 11.5099 5.21062 11.1087L3.78565 10.6403C3.8071 10.575 3.86453 10.5108 3.95429 10.4883L4.3181 11.9436ZM1.75 12.3904C1.75 12.5051 1.67193 12.6051 1.56063 12.6329L1.19683 11.1777C0.640372 11.3168 0.25 11.8168 0.25 12.3904H1.75ZM1.56063 15.3671C1.67193 15.3949 1.75 15.4949 1.75 15.6096H0.25C0.25 16.1832 0.640372 16.6832 1.19683 16.8223L1.56063 15.3671ZM5.21062 16.8913C5.07874 16.4901 4.75091 16.1646 4.3181 16.0564L3.95429 17.5117C3.86453 17.4892 3.8071 17.425 3.78565 17.3597L5.21062 16.8913ZM5.70009 19.3914C5.92971 19.0087 5.93135 18.5466 5.74058 18.1695L4.40211 18.8466C4.37104 18.7852 4.36624 18.699 4.41385 18.6197L5.70009 19.3914ZM4.19978 21.5239C4.2809 21.605 4.2964 21.7309 4.23738 21.8293L2.95114 21.0575C2.65604 21.5494 2.73354 22.179 3.13912 22.5846L4.19978 21.5239ZM6.17072 23.7626C6.26909 23.7036 6.395 23.7191 6.47612 23.8002L5.41546 24.8609C5.82104 25.2665 6.45062 25.344 6.94246 25.0489L6.17072 23.7626ZM9.83055 22.2594C9.45345 22.0687 8.99127 22.0703 8.60857 22.2999L9.38031 23.5862C9.30097 23.6338 9.21485 23.629 9.15343 23.5979L9.83055 22.2594ZM11.6194 23.4865C11.494 23.1103 11.2022 22.8276 10.8485 22.6995L10.3375 24.1098C10.2795 24.0888 10.2224 24.0388 10.1964 23.9609L11.6194 23.4865ZM12.3604 26.25C12.468 26.25 12.5635 26.3189 12.5975 26.4209L11.1745 26.8953C11.3447 27.4057 11.8223 27.75 12.3604 27.75V26.25ZM15.4024 26.4209C15.4365 26.3189 15.532 26.25 15.6396 26.25V27.75C16.1777 27.75 16.6553 27.4057 16.8255 26.8953L15.4024 26.4209ZM17.1515 22.6995C16.7978 22.8276 16.506 23.1103 16.3806 23.4865L17.8036 23.9609C17.7776 24.0388 17.7205 24.0887 17.6625 24.1098L17.1515 22.6995ZM19.0243 22.3911C18.6693 22.2136 18.2628 22.2202 17.9219 22.38L18.5587 23.7382C18.5027 23.7644 18.4269 23.7695 18.3534 23.7328L19.0243 22.3911ZM21.5027 23.8215C21.5788 23.7454 21.695 23.7265 21.7913 23.7746L21.1204 25.1163C21.6017 25.3569 22.1829 25.2626 22.5633 24.8821L21.5027 23.8215ZM23.7746 21.7913C23.7265 21.695 23.7454 21.5788 23.8214 21.5027L24.8821 22.5633C25.2626 22.1829 25.3569 21.6017 25.1163 21.1204L23.7746 21.7913ZM22.38 17.9219C22.2202 18.2628 22.2136 18.6693 22.3911 19.0243L23.7328 18.3534C23.7695 18.4269 23.7644 18.5028 23.7382 18.5587L22.38 17.9219ZM23.4865 16.3806C23.1103 16.506 22.8276 16.7978 22.6995 17.1515L24.1098 17.6625C24.0887 17.7205 24.0388 17.7776 23.9609 17.8036L23.4865 16.3806ZM26.25 15.6396C26.25 15.532 26.3189 15.4365 26.4209 15.4025L26.8953 16.8255C27.4057 16.6553 27.75 16.1777 27.75 15.6396H26.25ZM26.4209 12.5976C26.3189 12.5635 26.25 12.468 26.25 12.3604H27.75C27.75 11.8223 27.4057 11.3447 26.8953 11.1745L26.4209 12.5976ZM22.6995 10.8485C22.8276 11.2022 23.1103 11.494 23.4865 11.6194L23.9609 10.1964C24.0388 10.2224 24.0887 10.2795 24.1098 10.3375L22.6995 10.8485ZM22.3911 8.97574C22.2136 9.33071 22.2202 9.7372 22.38 10.0781L23.7382 9.4413C23.7644 9.49725 23.7695 9.57309 23.7328 9.64657L22.3911 8.97574ZM23.8215 6.49733C23.7454 6.42124 23.7265 6.305 23.7746 6.20875L25.1163 6.87957C25.3569 6.39833 25.2626 5.81712 24.8821 5.43667L23.8215 6.49733ZM21.7913 4.22539C21.695 4.27351 21.5788 4.25465 21.5027 4.17856L22.5633 3.1179C22.1829 2.73744 21.6017 2.64313 21.1204 2.88374L21.7913 4.22539ZM17.9219 5.61996C18.2628 5.7798 18.6693 5.78637 19.0243 5.60888L18.3534 4.26724C18.4269 4.2305 18.5028 4.23561 18.5587 4.26184L17.9219 5.61996ZM16.0564 4.3181C16.1646 4.7509 16.4901 5.07873 16.8913 5.21062L17.3597 3.78565C17.425 3.8071 17.4892 3.86454 17.5117 3.95429L16.0564 4.3181ZM12.3904 0.25C11.8168 0.25 11.3168 0.640372 11.1777 1.19683L12.6329 1.56063C12.6051 1.67193 12.5051 1.75 12.3904 1.75V0.25ZM15.6096 1.75C15.4949 1.75 15.3949 1.67193 15.3671 1.56063L16.8223 1.19683C16.6832 0.640371 16.1832 0.25 15.6096 0.25V1.75ZM18.25 14C18.25 16.3472 16.3472 18.25 14 18.25V19.75C17.1756 19.75 19.75 17.1756 19.75 14H18.25ZM14 18.25C11.6528 18.25 9.75 16.3472 9.75 14H8.25C8.25 17.1756 10.8244 19.75 14 19.75V18.25ZM9.75 14C9.75 11.6528 11.6528 9.75 14 9.75V8.25C10.8244 8.25 8.25 10.8244 8.25 14H9.75ZM14 9.75C16.3472 9.75 18.25 11.6528 18.25 14H19.75C19.75 10.8244 17.1756 8.25 14 8.25V9.75Z" fill="white"/>
</svg>

<svg xmlns="http://www.w3.org/2000/svg" width="28" height="28" fill="none" viewBox="0 0 28 28">
  <path fill="#fff" d="M10.874 4.498l.235.713-.235-.713zm.342-.362l-.728-.182.728.182zm-2.222.921L8.61 5.7l.385-.643zm.498.014l.339.67-.339-.67zM5.946 3.67l-.53-.53.53.53zm.61-.075l.386-.643-.385.643zM3.595 6.557l-.643.385.643-.385zm.075-.611l.53.53-.53-.53zm1.402 3.546l-.669-.339.67.339zm-.014-.498L5.7 8.61l-.643.385zm-.92 2.222l-.183-.728.182.728zm.361-.341l.713.234-.713-.235zm-3.12 1.03l.183.728-.182-.728zm0 4.19l.183-.728-.182.728zm3.12 1.03l-.712.235.712-.235zm-.362-.341l-.182.728.182-.728zm.921 2.222l.643.385-.643-.385zm.014-.498l.67-.338-.67.338zM3.67 22.054l-.53.53.53-.53zm-.075-.61l-.643-.386.643.385zm2.963 2.962l-.386-.643.386.643zm-.611-.075l.53-.53-.53.53zm3.546-1.402l.339-.67-.339.67zm-.498.014l.386.643-.386-.643zm1.914.78l-.712.238.712-.237zm-.315-.318l-.255.705.255-.705zm1.293 3.253l.712-.237-.712.237zm4.228 0l-.712-.237.712.237zm1.293-3.253l.256.705-.256-.705zm-.315.319l.712.237-.712-.237zm1.597-.662l.335-.67-.335.67zm-.449-.003l-.318-.679.318.68zm3.216 1.386l-.336.671.336-.67zm2.99-2.99l-.671.336.67-.335zm-1.387-3.215l.68.319-.68-.319zm.003.449l.67-.336-.67.336zm.662-1.597l.237.712-.237-.712zm-.32.315l-.704-.256.705.256zm3.254-1.293l-.237-.712.237.712zm0-4.228l.237-.711-.237.711zm-3.253-1.293l.705-.255-.705.255zm.319.315l-.238.711.238-.711zm-.662-1.597l.67.336-.67-.336zm-.003.449l.68-.319-.68.319zm1.293-3.793l-.53.53.53-.53zm.093.577l-.67-.335.67.335zm-2.99-2.99l-.335-.67.336.67zm.578.094l.53-.53-.53.53zM18.24 4.941l.319-.68-.319.68zm.449-.003l.335.67-.335-.67zm-1.905-.802l.728-.182-.728.182zm.341.362l-.234.713.235-.713zm-5.22-3.12l.728.183-.728-.182zm4.19 0l-.728.183.728-.182zM15.61.25h-3.22v1.5h3.22V.25zm1.902 3.704l-.69-2.757-1.455.364.69 2.757 1.455-.364zm-.62 1.257a9.18 9.18 0 011.03.409l.637-1.358a10.678 10.678 0 00-1.2-.476l-.468 1.425zm4.228-2.327l-2.767 1.383.671 1.342 2.767-1.384-.67-1.341zm3.762 2.553l-2.319-2.32-1.06 1.062 2.319 2.318 1.06-1.06zm-1.15 4.21l1.384-2.767-1.341-.671-1.384 2.767 1.342.67zm-1.352.431c.118.251.224.508.32.77l1.41-.51c-.11-.306-.235-.605-.372-.897l-1.358.637zm4.515 1.097l-2.934-.979-.474 1.423 2.934.979.474-1.424zm.855 4.465v-3.28h-1.5v3.28h1.5zm-3.79 2.164l2.935-.978-.474-1.424-2.934.979.474 1.423zm-1.26-.652c-.096.262-.202.519-.32.77l1.358.637c.137-.292.261-.591.372-.896l-1.41-.512zm2.416 3.968l-1.383-2.767-1.342.671 1.384 2.767 1.341-.67zm-2.553 3.762l2.32-2.319-1.062-1.06-2.318 2.319 1.06 1.06zm-4.21-1.15l2.767 1.384.671-1.341-2.767-1.384-.67 1.342zm-.431-1.352c-.251.118-.508.224-.77.32l.51 1.41c.306-.11.605-.235.897-.372l-.637-1.358zm-1.096 4.515l.978-2.934-1.423-.474-.979 2.934 1.424.474zm-4.466.855h3.28v-1.5h-3.28v1.5zm-2.164-3.79l.979 2.935 1.422-.474-.978-2.934-1.423.474zm.652-1.26a9.188 9.188 0 01-1.017-.44l-.678 1.338c.383.193.778.364 1.184.512l.511-1.41zm-3.906 2.349l2.438-1.463L8.61 22.3 6.17 23.763l.771 1.286zM3.14 22.585l2.276 2.276 1.061-1.06L4.2 21.523l-1.06 1.06zm1.275-3.965L2.95 21.058l1.286.771L5.7 19.391l-1.286-.771zm1.327-.45a9.19 9.19 0 01-.53-1.279l-1.425.469c.169.514.375 1.01.616 1.487l1.339-.678zm-4.544-1.348l2.757.69.364-1.456-2.757-.689-.364 1.455zM.25 12.39v3.22h1.5v-3.22H.25zm3.704-1.902l-2.757.69.364 1.455 2.757-.69-.364-1.455zm1.257.62c.145-.44.322-.868.53-1.277l-1.339-.678c-.24.477-.447.973-.616 1.487l1.425.469zM2.95 6.943L4.414 9.38 5.7 8.61 4.237 6.17l-1.286.771zM5.415 3.14L3.14 5.415 4.2 6.476 6.477 4.2l-1.06-1.06zM9.38 4.414L6.942 2.95l-.771 1.286L8.609 5.7l.771-1.286zm.45 1.327c.41-.208.837-.385 1.279-.53l-.469-1.425c-.514.169-1.01.375-1.487.616l.678 1.339zm1.348-4.544l-.69 2.757 1.456.364.689-2.757-1.455-.364zm-.07 4.014c.402-.132.727-.46.836-.893l-1.456-.364a.235.235 0 01.152-.168l.469 1.425zm-2.5.49c.383.229.845.23 1.223.04l-.678-1.339a.235.235 0 01.227.012L8.61 5.7zM6.477 4.2a.25.25 0 01-.305.037l.771-1.286a1.25 1.25 0 00-1.527.188L6.476 4.2zM4.237 6.17a.25.25 0 01-.037.306l-1.06-1.06a1.25 1.25 0 00-.189 1.526l1.286-.771zm1.504 3.66c.19-.377.189-.839-.04-1.221l-1.287.771a.235.235 0 01-.012-.227l1.339.678zm-1.423 2.114c.433-.109.76-.434.893-.835l-1.425-.469a.235.235 0 01.168-.152l.364 1.456zm-2.568.446a.25.25 0 01-.19.243l-.363-1.455A1.25 1.25 0 00.25 12.39h1.5zm-.19 2.977a.25.25 0 01.19.243H.25c0 .573.39 1.073.947 1.212l.364-1.455zm3.65 1.524a1.265 1.265 0 00-.892-.835l-.364 1.456a.235.235 0 01-.168-.152l1.425-.469zm.49 2.5c.23-.382.231-.844.04-1.221l-1.338.677a.235.235 0 01.012-.227l1.286.771zm-1.5 2.133a.25.25 0 01.037.305l-1.286-.771a1.25 1.25 0 00.188 1.527l1.06-1.061zm1.97 2.239a.25.25 0 01.306.037l-1.06 1.06a1.25 1.25 0 001.526.189l-.771-1.286zm3.66-1.504c-.377-.19-.839-.189-1.221.04l.771 1.287a.235.235 0 01-.227.012l.678-1.339zm1.79 1.227a1.264 1.264 0 00-.771-.787l-.511 1.41a.236.236 0 01-.142-.148l1.423-.474zm.74 2.764a.25.25 0 01.238.17l-1.424.475c.17.51.648.855 1.186.855v-1.5zm3.042.17a.25.25 0 01.238-.17v1.5a1.25 1.25 0 001.186-.855l-1.424-.474zm1.75-3.72c-.354.128-.646.41-.771.787l1.423.474a.236.236 0 01-.141.149l-.512-1.41zm1.872-.309a1.265 1.265 0 00-1.102-.011l.637 1.358a.236.236 0 01-.206-.005l.671-1.342zm2.479 1.43a.25.25 0 01.288-.046l-.67 1.341a1.25 1.25 0 001.442-.234l-1.06-1.06zm2.272-2.03a.25.25 0 01.046-.288l1.061 1.06c.38-.38.475-.961.234-1.443l-1.341.671zm-1.395-3.87c-.16.342-.166.748.011 1.103l1.342-.67c.037.073.031.149.005.205l-1.358-.637zm1.107-1.54a1.264 1.264 0 00-.787.77l1.41.512a.236.236 0 01-.15.14l-.474-1.422zm2.763-.741a.25.25 0 01.17-.238l.475 1.424c.51-.17.855-.648.855-1.186h-1.5zm.17-3.042a.25.25 0 01-.17-.238h1.5a1.25 1.25 0 00-.855-1.185l-.474 1.423zm-3.72-1.75c.128.354.41.646.787.771l.474-1.423a.236.236 0 01.149.142l-1.41.51zm-.309-1.872c-.177.355-.17.761-.011 1.102l1.358-.637a.236.236 0 01-.005.206l-1.342-.671zm1.43-2.479a.25.25 0 01-.046-.288l1.341.67a1.25 1.25 0 00-.234-1.442l-1.06 1.06zm-2.03-2.272a.25.25 0 01-.288-.046l1.06-1.061a1.25 1.25 0 00-1.443-.234l.671 1.341zm-3.87 1.395c.342.16.748.166 1.103-.011l-.67-1.342a.236.236 0 01.205-.005l-.637 1.358zm-1.865-1.302c.109.433.434.76.835.893l.469-1.425c.065.021.13.079.152.168l-1.456.364zM12.39.25a1.25 1.25 0 00-1.212.947l1.455.364a.25.25 0 01-.243.189V.25zm3.22 1.5a.25.25 0 01-.243-.19l1.455-.363A1.25 1.25 0 0015.61.25v1.5zM18.25 14A4.25 4.25 0 0114 18.25v1.5A5.75 5.75 0 0019.75 14h-1.5zM14 18.25A4.25 4.25 0 019.75 14h-1.5A5.75 5.75 0 0014 19.75v-1.5zM9.75 14A4.25 4.25 0 0114 9.75v-1.5A5.75 5.75 0 008.25 14h1.5zM14 9.75A4.25 4.25 0 0118.25 14h1.5A5.75 5.75 0 0014 8.25v1.5z"/>
</svg>
